alpha/bR.svg

<svg viewBox="0 0 2048 2048" xmlns="http://www.w3.org/2000/svg"><path d="m 674.03596,731.7573 -75.74383,807.6944 850.72807,13.8067 -75.1415,-833.00671 z" fill="#f9f9f9"/><path d="M1024 1843H383l29-264 159-118 50-659-149-107-17-341h289v147h137V354h286v147h137V354h289l-17 341-149 107 50 659 159 118 29 264zm0-989h333l-6-88H697l-6 88zm0 647h381l-6-87H649l-6 87z" fill="#101010"/></svg>

<?xml version="1.0" encoding="UTF-8" standalone="no"?>
<svg
   viewBox="0 0 2048 2048"
   version="1.1"
   id="svg243"
   sodipodi:docname="bR.svg"
   xml:space="preserve"
   inkscape:version="1.2.1 (9c6d41e410, 2022-07-14)"
   xmlns:inkscape="http://www.inkscape.org/namespaces/inkscape"
   xmlns:sodipodi="http://sodipodi.sourceforge.net/DTD/sodipodi-0.dtd"
   xmlns="http://www.w3.org/2000/svg"
   xmlns:svg="http://www.w3.org/2000/svg"><defs
     id="defs247" /><sodipodi:namedview
     id="namedview245"
     pagecolor="#ffffff"
     bordercolor="#000000"
     borderopacity="0.25"
     inkscape:showpageshadow="2"
     inkscape:pageopacity="0.0"
     inkscape:pagecheckerboard="0"
     inkscape:deskcolor="#d1d1d1"
     showgrid="false"
     inkscape:zoom="0.28104733"
     inkscape:cx="122.75513"
     inkscape:cy="1261.3534"
     inkscape:window-width="1920"
     inkscape:window-height="1001"
     inkscape:window-x="-9"
     inkscape:window-y="-9"
     inkscape:window-maximized="1"
     inkscape:current-layer="svg243" /><path
     d="m 674.03596,731.7573 -75.74383,807.6944 850.72807,13.8067 -75.1415,-833.00671 z"
     fill="#f9f9f9"
     id="path239"
     style="fill:#ffcc00" /><path
     d="M 1024,1843 H 383 L 412,1579 571,1461 621,802 472,695 455,354 H 744 V 501 H 881 V 354 h 286 v 147 h 137 V 354 h 289 l -17,341 -149,107 50,659 159,118 29,264 z m 0,-989 h 333 l -6,-88 H 697 l -6,88 z m 0,647 h 381 l -6,-87 H 649 l -6,87 z"
     fill="#101010"
     id="path241"
     sodipodi:nodetypes="cccccccccccccccccccccccccccccccccc" /></svg>
